Papirus/24x24/apps/distributor-logo-tuxedo-os.svg

<svg width="24" height="24" version="1.1" xmlns="http://www.w3.org/2000/svg">
 <circle cx="11.999987" cy="12.499989" r="9.9999886" style="opacity:.2"/>
 <circle cx="11.999987" cy="11.999987" r="9.9999886" style="fill:#4f4f4f"/>
 <path d="m6.49999 20.50001 4.30001-7.45-2.70001-3.55001h2.30001l1.4 2.00001 2-3.00001h-10.98c0.39811-0.84247 0.81578-1.52393 1.18-2h13l-4.1 6.30001 3.407 4.7h-2.507l-1.863-2.7-2.43701 3.7h10.51401c-0.6592 0.8572-1.1761 1.358-2 2z" style="fill-rule:evenodd;opacity:.2"/>
 <path d="m6.49999 20 4.30001-7.45-2.70001-3.55001h2.30001l1.4 2.00001 2-3.00001h-10.98c0.39811-0.84247 0.81578-1.52393 1.18-2h13l-4.1 6.30001 3.407 4.7h-2.507l-1.863-2.7-2.43701 3.7h10.51401c-0.6592 0.8572-1.1761 1.358-2 2z" style="fill-rule:evenodd;fill:#c2352a"/>
 <path d="M 12,2 A 9.9999886,9.9999886 0 0 0 2,12 9.9999886,9.9999886 0 0 0 2.0175781,12.25 9.9999886,9.9999886 0 0 1 12,2.5 9.9999886,9.9999886 0 0 1 21.990234,12.125 9.9999886,9.9999886 0 0 0 22,12 9.9999886,9.9999886 0 0 0 12,2 Z" style="fill:#ffffff;opacity:.2"/>
 <path d="m4 6c-0.36422 0.47607-0.7815775 1.15753-1.1796875 2h0.25c0.3193282-0.6128841 0.6411496-1.1228536 0.9296875-1.5h12.673828l0.326172-0.5h-13zm9.466797 2.5-1.666016 2.5-1.40039-2h-2.3007816l0.3808594 0.5h1.9199222l1.40039 2 2-3h-0.333984zm-0.394531 4.037109-0.171875 0.263672 3.042968 4.199219h0.363282l-3.234375-4.462891zm-2.435547 0.298829-4.136719 7.164062h0.2890625l4.0117185-6.949219-0.164062-0.214843zm-0.8066409 5.164062-0.3300781 0.5h10.109375c0.131417-0.154615 0.264352-0.318021 0.404297-0.5h-10.183594z" style="fill-rule:evenodd;fill:#ffffff;opacity:.2"/>
</svg>

<svg xmlns="http://www.w3.org/2000/svg" width="24" height="24" version="1.1">
 <circle style="opacity:0.2" cx="12" cy="12.5" r="10"/>
 <circle style="fill:#4f4f4f" cx="12" cy="12" r="10"/>
 <path style="opacity:0.1" d="M 6.5,20.5 10.8,13.05 8.1,9.5 H 10.4 L 11.8,11.5 13.8,8.5 H 2.82 C 3.2181,7.6575 3.6358,6.9761 4,6.5 H 17 L 12.9,12.8 16.307,17.5 H 13.8 L 11.937,14.8 9.5,18.5 H 20.014 C 19.355,19.357 18.838,19.858 18.014,20.5 Z"/>
 <path style="fill:#c2352a" d="M 6.5,20 10.8,12.55 8.1,9 H 10.4 L 11.8,11 13.8,8 H 2.82 C 3.2181,7.1575 3.6358,6.4761 4,6 H 17 L 12.9,12.3 16.307,17 H 13.8 L 11.937,14.3 9.5,18 H 20.014 C 19.355,18.857 18.838,19.358 18.014,20 Z"/>
 <path style="opacity:0.1;fill:#ffffff" d="M 12,2 A 10,10 0 0 0 2,12 10,10 0 0 0 2.0176,12.25 10,10 0 0 1 12,2.5 10,10 0 0 1 21.99,12.125 10,10 0 0 0 22,12 10,10 0 0 0 12,2 Z"/>
 <path style="opacity:0.2;fill:#ffffff" d="M 4,6 C 3.6358,6.4761 3.2184,7.1575 2.8203,8 H 3.0703 C 3.3896,7.3871 3.7115,6.8771 4,6.5 H 16.674 L 17,6 Z M 13.467,8.5 11.801,11 10.4,9 H 8.0996 L 8.4805,9.5 H 10.4 L 11.801,11.5 13.801,8.5 Z M 13.072,12.537 12.9,12.801 15.943,17 H 16.307 Z M 10.637,12.836 6.5,20 H 6.7891 L 10.801,13.051 Z M 9.8301,18 9.5,18.5 H 19.609 C 19.741,18.345 19.874,18.182 20.014,18 Z"/>
</svg>
